64x64/apps/meld.svg

<svg xmlns="http://www.w3.org/2000/svg" width="64" height="64" version="1.0">
 <path style="opacity:0.2" d="M 25,5 C 13.366,5 4,14.366 4,26 v 7 7 c 0,11.634 9.366,21 21,21 H 39 C 50.634,61 60,51.634 60,40 V 33 26 C 60,14.366 50.634,5 39,5 Z"/>
 <path style="fill:#3584e4" d="M 25,4 C 13.366,4 4,13.366 4,25 v 7 7 c 0,11.634 9.366,21 21,21 H 39 C 50.634,60 60,50.634 60,39 V 32 25 C 60,13.366 50.634,4 39,4 Z"/>
 <path style="opacity:0.2;fill:#f4f4f7" d="M 25 4 C 13.366 4 4 13.366 4 25 L 4 26 C 4 14.366 13.366 5 25 5 L 39 5 C 50.634 5 60 14.366 60 26 L 60 25 C 60 13.366 50.634 4 39 4 L 25 4 z"/>
 <path style="opacity:0.2" d="M 8.3515624,5 C 5.9398908,5 4,6.9164324 4,9.296875 v 17.906249 3.398438 c 1.3153352,3.327212 3.2119722,6.434506 5.7734376,9.15625 2.9946194,3.181996 7.4421214,5.844976 12.0468744,6.832032 4.604752,0.987046 9.763108,0.298342 13.382812,-3.210938 1.239788,-1.201956 2.287622,-2.980168 2.656252,-4.804688 C 38.227994,36.749704 37.918932,34.881668 36.457032,33.5 35.993066,33.061498 34.907042,32.690306 34.210938,32.566406 33.519118,32.443262 32.503426,32.452406 32,33 c 0.561714,0.503804 1.004712,1.315252 0.878906,2.003906 -0.12668,0.69332 -0.508846,1.377838 -0.95703,1.839844 -1.406954,1.450356 -3.30927,2.431502 -5.164064,2.066406 -1.85479,-0.365102 -3.664938,-1.397194 -4.886718,-2.625 C 19.199276,33.600178 18.002845,29.599686 18.0625,26.1875 18.08236,25.050098 18.226222,23.903472 18.476562,22.765624 19.477945,18.214221 22.314926,12.561351 25.542968,9.601562 27.604088,7.7117262 29.885818,6.1928478 32.3125,5 Z M 32,33 c -0.561714,-0.503804 -1.004712,-1.315252 -0.878906,-2.003906 0.12668,-0.69332 0.508846,-1.377838 0.95703,-1.839844 1.406952,-1.450356 3.30927,-2.431502 5.164064,-2.066406 1.85479,0.365102 3.664938,1.397194 4.886718,2.625 2.671818,2.684978 3.868248,6.68547 3.808594,10.097656 -0.0198,1.137402 -0.16372,2.284028 -0.414062,3.421876 C 44.522056,47.785778 41.685074,53.43865 38.457032,56.398438 36.395912,58.288274 34.114182,59.807152 31.6875,61 H 55.648438 C 58.060108,61 60,59.083568 60,56.703124 V 38.796876 35.398438 c -1.315336,-3.327212 -3.211972,-6.434506 -5.773438,-9.15625 -2.99462,-3.181996 -7.44212,-5.844976 -12.046874,-6.832032 -4.604752,-0.987046 -9.76311,-0.298342 -13.382812,3.210938 -1.239786,1.201956 -2.287622,2.980168 -2.656252,4.804688 -0.368618,1.824514 -0.05956,3.69255 1.402344,5.074218 0.463966,0.438502 1.54999,0.809694 2.246094,0.933594 C 30.480882,33.556734 31.496574,33.547586 32,33 Z"/>
 <path style="fill:#ff9632" d="M 8.3515624,4 C 5.9398908,4 4,5.9164324 4,8.296875 v 17.906249 3.398438 c 1.3153352,3.327212 3.2119722,6.434506 5.7734376,9.15625 2.9946194,3.181996 7.4421214,5.844976 12.0468744,6.832032 4.604752,0.987046 9.763108,0.298342 13.382812,-3.210938 1.239788,-1.201956 2.287622,-2.980168 2.656252,-4.804688 C 38.227994,35.749704 37.918932,33.881668 36.457032,32.5 35.993066,32.061498 34.907042,31.690306 34.210938,31.566406 33.519118,31.443262 32.503426,31.452406 32,32 c 0.561714,0.503804 1.004712,1.315252 0.878906,2.003906 -0.12668,0.69332 -0.508846,1.377838 -0.95703,1.839844 -1.406954,1.450356 -3.30927,2.431502 -5.164064,2.066406 -1.85479,-0.365102 -3.664938,-1.397194 -4.886718,-2.625 C 19.199276,32.600178 18.002845,28.599686 18.0625,25.1875 18.08236,24.050098 18.226222,22.903472 18.476562,21.765624 19.477945,17.214221 22.314926,11.561351 25.542968,8.6015624 27.604088,6.7117262 29.885818,5.1928478 32.3125,4 Z M 32,32 c -0.561714,-0.503804 -1.004712,-1.315252 -0.878906,-2.003906 0.12668,-0.69332 0.508846,-1.377838 0.95703,-1.839844 1.406952,-1.450356 3.30927,-2.431502 5.164064,-2.066406 1.85479,0.365102 3.664938,1.397194 4.886718,2.625 2.671818,2.684978 3.868248,6.68547 3.808594,10.097656 -0.0198,1.137402 -0.16372,2.284028 -0.414062,3.421876 C 44.522056,46.785778 41.685074,52.43865 38.457032,55.398438 36.395912,57.288274 34.114182,58.807152 31.6875,60 H 55.648438 C 58.060108,60 60,58.083568 60,55.703124 V 37.796876 34.398438 c -1.315336,-3.327212 -3.211972,-6.434506 -5.773438,-9.15625 -2.99462,-3.181996 -7.44212,-5.844976 -12.046874,-6.832032 -4.604752,-0.987046 -9.76311,-0.298343 -13.382812,3.210938 -1.239786,1.201956 -2.287622,2.980168 -2.656252,4.804688 -0.368618,1.824514 -0.05956,3.69255 1.402344,5.074218 0.463966,0.438502 1.54999,0.809694 2.246094,0.933594 C 30.480882,32.556734 31.496574,32.547586 32,32 Z"/>
 <path style="fill:#f4f4f7;opacity:0.2" d="M 8.3515625 4 C 5.9398909 4 4 5.9164324 4 8.296875 L 4 9.296875 C 4 6.9164324 5.9398909 5 8.3515625 5 L 30.453125 5 C 31.062887 4.6451594 31.681829 4.3100098 32.3125 4 L 8.3515625 4 z M 38.654297 18.001953 C 35.091205 17.943738 31.511652 18.989133 28.796875 21.621094 C 27.557089 22.82305 26.509255 24.601261 26.140625 26.425781 C 26.015351 27.045837 25.975476 27.669986 26.025391 28.279297 C 26.048132 27.995072 26.083224 27.709896 26.140625 27.425781 C 26.509255 25.601261 27.557089 23.82305 28.796875 22.621094 C 32.416577 19.111813 37.574936 18.42311 42.179688 19.410156 C 46.784442 20.397212 51.231943 23.060192 54.226562 26.242188 C 56.788028 28.963932 58.684664 32.071225 60 35.398438 L 60 34.398438 C 58.684664 31.071226 56.788028 27.963932 54.226562 25.242188 C 51.231943 22.060192 46.784442 19.397212 42.179688 18.410156 C 41.0285 18.163395 39.841994 18.021358 38.654297 18.001953 z M 18.082031 25.900391 C 18.07863 25.995924 18.064166 26.092086 18.0625 26.1875 C 18.002845 29.599686 19.199276 33.600178 21.871094 36.285156 C 23.092874 37.512962 24.903022 38.545054 26.757812 38.910156 C 28.612607 39.275252 30.514921 38.294106 31.921875 36.84375 C 32.370059 36.381744 32.752226 35.697226 32.878906 35.003906 C 32.922251 34.76664 32.879928 34.516392 32.806641 34.267578 C 32.641875 34.867222 32.312743 35.440827 31.921875 35.84375 C 30.514921 37.294106 28.612607 38.275252 26.757812 37.910156 C 24.903022 37.545054 23.092874 36.512962 21.871094 35.285156 C 19.382031 32.783834 18.187494 29.145858 18.082031 25.900391 z M 31.193359 30.732422 C 31.169199 30.820352 31.137294 30.907429 31.121094 30.996094 C 31.041392 31.432378 31.2024 31.910534 31.464844 32.335938 C 31.669795 32.258037 31.857885 32.154581 32 32 C 31.631817 31.669774 31.332785 31.20578 31.193359 30.732422 z M 32 32 C 32.205851 32.184628 32.383344 32.417986 32.535156 32.664062 C 33.05622 32.466007 33.714415 32.478025 34.210938 32.566406 C 34.907041 32.690306 35.993065 33.061498 36.457031 33.5 C 37.422109 34.412112 37.877649 35.537118 37.974609 36.720703 C 38.097907 35.179708 37.691283 33.666514 36.457031 32.5 C 35.993065 32.061498 34.907041 31.690306 34.210938 31.566406 C 33.519118 31.443262 32.503426 31.452406 32 32 z M 45.917969 39.099609 C 45.880866 40.142899 45.752779 41.191979 45.523438 42.234375 C 44.522056 46.785777 41.685073 52.438649 38.457031 55.398438 C 36.395911 57.288274 34.114182 58.807152 31.6875 60 L 33.546875 60 C 35.283341 58.989494 36.931577 57.797123 38.457031 56.398438 C 41.685073 53.438649 44.522056 47.785777 45.523438 43.234375 C 45.77378 42.096527 45.9177 40.949902 45.9375 39.8125 C 45.94158 39.579102 45.925712 39.337903 45.917969 39.099609 z"/>
</svg>

<svg xmlns="http://www.w3.org/2000/svg" width="64" height="64" version="1.0"><path style="opacity:.2" d="M25 5C13.366 5 4 14.366 4 26v14c0 11.634 9.366 21 21 21h14c11.634 0 21-9.366 21-21V26c0-11.634-9.366-21-21-21z"/><path style="fill:#3584e4" d="M25 4C13.366 4 4 13.366 4 25v14c0 11.634 9.366 21 21 21h14c11.634 0 21-9.366 21-21V25c0-11.634-9.366-21-21-21z"/><path style="opacity:.2;fill:#f4f4f7" d="M25 4C13.366 4 4 13.366 4 25v1C4 14.366 13.366 5 25 5h14c11.634 0 21 9.366 21 21v-1c0-11.634-9.366-21-21-21H25z"/><path style="opacity:.2" d="M8.352 5C5.94 5 4 6.916 4 9.297v21.305c1.315 3.327 3.212 6.434 5.773 9.156 2.995 3.182 7.443 5.845 12.047 6.832 4.605.987 9.763.298 13.383-3.211 1.24-1.202 2.288-2.98 2.656-4.805.369-1.824.06-3.692-1.402-5.074-.464-.439-1.55-.81-2.246-.934-.692-.123-1.708-.114-2.211.434.562.504 1.005 1.315.879 2.004a3.73 3.73 0 0 1-.957 1.84c-1.407 1.45-3.31 2.431-5.164 2.066-1.855-.365-3.665-1.397-4.887-2.625C19.2 33.6 18.003 29.6 18.063 26.188c.02-1.138.163-2.285.414-3.422 1-4.552 3.838-10.205 7.066-13.164A28.707 28.707 0 0 1 32.313 5zM32 33c-.562-.504-1.005-1.315-.879-2.004a3.73 3.73 0 0 1 .957-1.84c1.407-1.45 3.31-2.431 5.164-2.066 1.855.365 3.665 1.397 4.887 2.625C44.8 32.4 45.997 36.4 45.938 39.813a17.35 17.35 0 0 1-.415 3.421c-1 4.552-3.838 10.205-7.066 13.164A28.707 28.707 0 0 1 31.687 61h23.961C58.06 61 60 59.084 60 56.703V35.398c-1.315-3.327-3.212-6.434-5.773-9.156-2.995-3.182-7.443-5.845-12.047-6.832-4.605-.987-9.763-.298-13.383 3.211-1.24 1.202-2.288 2.98-2.656 4.805-.369 1.824-.06 3.692 1.402 5.074.464.439 1.55.81 2.246.934.692.123 1.708.114 2.211-.434z"/><path style="fill:#ff9632" d="M8.352 4C5.94 4 4 5.916 4 8.297v21.305c1.315 3.327 3.212 6.434 5.773 9.156 2.995 3.182 7.443 5.845 12.047 6.832 4.605.987 9.763.298 13.383-3.211 1.24-1.202 2.288-2.98 2.656-4.805.369-1.824.06-3.692-1.402-5.074-.464-.439-1.55-.81-2.246-.934-.692-.123-1.708-.114-2.211.434.562.504 1.005 1.315.879 2.004a3.73 3.73 0 0 1-.957 1.84c-1.407 1.45-3.31 2.431-5.164 2.066-1.855-.365-3.665-1.397-4.887-2.625C19.2 32.6 18.003 28.6 18.063 25.188c.02-1.138.163-2.285.414-3.422 1-4.552 3.838-10.205 7.066-13.164A28.707 28.707 0 0 1 32.313 4zM32 32c-.562-.504-1.005-1.315-.879-2.004a3.73 3.73 0 0 1 .957-1.84c1.407-1.45 3.31-2.431 5.164-2.066 1.855.365 3.665 1.397 4.887 2.625C44.8 31.4 45.997 35.4 45.938 38.813a17.35 17.35 0 0 1-.415 3.421c-1 4.552-3.838 10.205-7.066 13.164A28.707 28.707 0 0 1 31.687 60h23.961C58.06 60 60 58.084 60 55.703V34.398c-1.315-3.327-3.212-6.434-5.773-9.156-2.995-3.182-7.443-5.845-12.047-6.832-4.605-.987-9.763-.298-13.383 3.211-1.24 1.202-2.288 2.98-2.656 4.805-.369 1.824-.06 3.692 1.402 5.074.464.439 1.55.81 2.246.934.692.123 1.708.114 2.211-.434z"/><path style="fill:#f4f4f7;opacity:.2" d="M8.352 4C5.94 4 4 5.916 4 8.297v1C4 6.917 5.94 5 8.352 5h22.101c.61-.355 1.229-.69 1.86-1H8.352zm30.302 14.002c-3.563-.058-7.142.987-9.857 3.62-1.24 1.201-2.288 2.98-2.656 4.804a6.632 6.632 0 0 0-.116 1.853c.023-.284.058-.57.116-.853.368-1.825 1.416-3.603 2.656-4.805 3.62-3.51 8.778-4.198 13.383-3.21 4.604.986 9.052 3.65 12.047 6.831 2.561 2.722 4.458 5.83 5.773 9.156v-1c-1.315-3.327-3.212-6.434-5.773-9.156-2.995-3.182-7.443-5.845-12.047-6.832a18.293 18.293 0 0 0-3.526-.408zM18.082 25.9c-.003.096-.018.192-.02.288-.06 3.412 1.137 7.412 3.81 10.097 1.22 1.228 3.031 2.26 4.886 2.625 1.855.365 3.757-.616 5.164-2.066a3.73 3.73 0 0 0 .957-1.84c.043-.237 0-.488-.072-.736a3.764 3.764 0 0 1-.885 1.576c-1.407 1.45-3.31 2.431-5.164 2.066-1.855-.365-3.665-1.397-4.887-2.625-2.489-2.501-3.684-6.14-3.789-9.385zm13.111 4.832c-.024.088-.056.175-.072.264-.08.436.081.915.344 1.34.205-.078.393-.181.535-.336a2.84 2.84 0 0 1-.807-1.268zM32 32c.206.185.383.418.535.664.521-.198 1.18-.186 1.676-.098.696.124 1.782.495 2.246.934.965.912 1.42 2.037 1.518 3.22.123-1.54-.284-3.053-1.518-4.22-.464-.439-1.55-.81-2.246-.934-.692-.123-1.708-.114-2.211.434zm13.918 7.1a17.47 17.47 0 0 1-.395 3.134c-1 4.552-3.838 10.205-7.066 13.164A28.707 28.707 0 0 1 31.687 60h1.86a28.313 28.313 0 0 0 4.91-3.602c3.228-2.96 6.065-8.612 7.066-13.164a17.35 17.35 0 0 0 .414-3.422c.005-.233-.011-.474-.019-.712z"/></svg>
